;FLAVOR:Marlin
;TIME:2866
;Filament used: 2.16685m
;Layer height: 0.15
;MINX:-23.044
;MINY:-19.915
;MINZ:0.2
;MAXX:15.074
;MAXY:26.979
;MAXZ:47.15
;Generated with Cura_SteamEngine 4.6.1
M140 S60
M105
M190 S60
M104 S200
M105
M109 S200
M82 ;absolute extrusion mode
; -- START GCODE --
G21                     ;set units to millimetres
G91                     ;set to absolute positioning
G1 Z20                  ;move up 20mm
G90                     ;set to absolute positioning
M106 S0                 ;set fan speed to zero (turned off)
G28 X0                  ;home X
G1 X50 F2400            ;move X to avoid clip
G28 Y0 Z0               ;home Y and Z
G92 E0                  ;zero the extruded length
G1 Z1 F1000             ;move up slightly
G1 X60.0 Z0 E9.0 F1000.0;intro line
G1 X100.0 E21.5 F1000.0 ;continue line
G92 E0                  ;zero the extruded length again
; -- end of START GCODE --
G92 E0
G92 E0
G1 F2700 E-5
;LAYER_COUNT:314
;LAYER:0
M107
G0 F3600 X8.581 Y-8.078 Z0.2
;TYPE:SKIRT
G1 F2700 E0
G1 F1200 X8.944 Y-7.763 E0.01599
G1 X9.733 Y-6.972 E0.05314
G1 X10.096 Y-6.552 E0.07161
G1 X10.582 Y-5.93 E0.09786
G1 X10.899 Y-5.426 E0.11767
G1 X11.013 Y-5.238 E0.12498
G1 X11.234 Y-4.952 E0.137
G1 X11.667 Y-4.291 E0.16328
G1 X12.241 Y-3.312 E0.20103
G1 X12.471 Y-2.846 E0.21831
G1 X12.785 Y-2.121 E0.24459
G1 X12.861 Y-1.88 E0.25299
G1 X12.965 Y-1.671 E0.26076
G1 X13.255 Y-.985 E0.28553
G1 X13.494 Y-.397 E0.30664
G1 X13.77 Y0.405 E0.33485
G1 X13.955 Y1.055 E0.35733
G1 X14.133 Y1.824 E0.38358
G1 X14.273 Y2.522 E0.40726
G1 X14.479 Y3.355 E0.4358
G1 X14.584 Y3.871 E0.45331
G1 X14.67 Y4.382 E0.47055
G1 X14.752 Y4.917 E0.48855
G1 X14.831 Y5.703 E0.51483
G1 X14.879 Y6.334 E0.53587
G1 X14.97 Y7.187 E0.56441
G1 X15.025 Y8.216 E0.59868
G1 X15.052 Y9.087 E0.62766
G1 X15.074 Y10.034 E0.65917
G1 X15.041 Y11.339 E0.70259
G1 X15.04 Y12.097 E0.7278
G1 X15.028 Y13.38 E0.77047
G1 X15.002 Y14.106 E0.79463
G1 X15.05 Y15.739 E0.84897
G1 X15.026 Y16.572 E0.87669
G1 X14.956 Y17.274 E0.90015
G1 X14.883 Y17.804 E0.91795
G1 X14.756 Y18.627 E0.94564
G1 X14.596 Y19.4 E0.9719
G1 X14.436 Y19.933 E0.99041
G1 X14.259 Y20.455 E1.00874
G1 X13.968 Y21.189 E1.035
G1 X13.733 Y21.66 E1.05251
G1 X13.177 Y22.605 E1.08898
G1 X12.652 Y23.291 E1.11771
G1 X12.391 Y23.596 E1.13106
G1 X11.657 Y24.346 E1.16596
G1 X10.792 Y25.064 E1.20335
G1 X10.13 Y25.494 E1.22961
G1 X9.252 Y25.95 E1.26252
G1 X8.529 Y26.268 E1.28879
G1 X7.884 Y26.482 E1.31139
G1 X7.404 Y26.618 E1.32798
G1 X6.596 Y26.801 E1.35554
G1 X5.642 Y26.928 E1.38755
G1 X4.608 Y26.964 E1.42196
G1 X3.821 Y26.902 E1.44822
G1 X3.044 Y26.761 E1.47448
G1 X2.285 Y26.542 E1.50076
G1 X1.757 Y26.341 E1.51955
G1 X1.032 Y26.027 E1.54582
G1 X0.218 Y25.561 E1.57702
G1 X-.684 Y24.922 E1.61379
G1 X-1.271 Y24.394 E1.64005
G1 X-1.802 Y23.81 E1.6663
G1 X-2.111 Y23.408 E1.68316
G1 X-2.321 Y23.115 E1.69515
G1 X-2.909 Y22.154 E1.73262
G1 X-3.164 Y21.661 E1.75108
G1 X-3.665 Y20.801 E1.78419
G1 X-3.945 Y20.257 E1.80454
G1 X-3.963 Y20.219 E1.80594
G1 X-4.232 Y20.731 E1.82517
G1 X-4.592 Y21.247 E1.8461
G1 X-5.022 Y22.168 E1.87991
G1 X-5.387 Y22.784 E1.90372
G1 X-5.833 Y23.435 E1.92997
G1 X-6.283 Y23.973 E1.9533
G1 X-7.053 Y24.754 E1.98977
G1 X-7.669 Y25.249 E2.01606
G1 X-8.331 Y25.679 E2.04231
G1 X-9.206 Y26.163 E2.07557
G1 X-10.261 Y26.578 E2.11328
G1 X-11.18 Y26.822 E2.1449
G1 X-11.961 Y26.94 E2.17117
G1 X-12.749 Y26.979 E2.19741
G1 X-13.282 Y26.951 E2.21517
G1 X-14.121 Y26.899 E2.24313
G1 X-14.9 Y26.766 E2.26941
G1 X-15.834 Y26.51 E2.30162
G1 X-16.902 Y26.113 E2.33952
G1 X-17.132 Y26.007 E2.34794
G1 X-17.842 Y25.662 E2.3742
G1 X-18.486 Y25.268 E2.39931
G1 X-19.244 Y24.702 E2.43077
G1 X-20.096 Y23.912 E2.46941
G1 X-20.616 Y23.317 E2.4957
G1 X-21.012 Y22.768 E2.51821
G1 X-21.406 Y22.13 E2.54315
G1 X-21.568 Y21.89 E2.55278
G1 X-21.942 Y21.194 E2.57906
G1 X-22.342 Y20.168 E2.61569
G1 X-22.57 Y19.434 E2.64125
G1 X-22.833 Y18.285 E2.68046
G1 X-22.896 Y17.868 E2.69448
G1 X-22.984 Y16.76 E2.73145
G1 X-23.001 Y14.561 E2.80459
G1 X-22.987 Y13.2 E2.84986
G1 X-23.032 Y12.312 E2.87943
G1 X-23.027 Y11.536 E2.90525
G1 X-23.009 Y10.826 E2.92887
G1 X-23.02 Y10.232 E2.94863
G1 X-23.044 Y9.342 E2.97824
G1 X-23.026 Y8.659 E3.00096
G1 X-22.993 Y7.98 E3.02357
G1 X-22.922 Y7.222 E3.0489
G1 X-22.864 Y6.019 E3.08895
G1 X-22.783 Y5.299 E3.11305
G1 X-22.706 Y4.776 E3.13064
G1 X-22.563 Y4.046 E3.15538
G1 X-22.53 Y3.655 E3.16843
G1 X-22.41 Y2.986 E3.19103
G1 X-22.278 Y2.397 E3.21111
G1 X-22.117 Y1.794 E3.23187
G1 X-21.843 Y0.808 E3.26591
G1 X-21.581 Y-.156 E3.29913
G1 X-21.404 Y-.658 E3.31684
G1 X-21.129 Y-1.362 E3.34197
G1 X-20.73 Y-2.225 E3.3736
G1 X-20.185 Y-3.278 E3.41303
G1 X-20.113 Y-3.394 E3.41757
G1 X-19.833 Y-3.985 E3.43932
G1 X-19.475 Y-4.584 E3.46253
G1 X-19.099 Y-5.154 E3.48525
G1 X-18.491 Y-5.957 E3.51875
G1 X-17.889 Y-6.689 E3.55027
G1 X-17.723 Y-6.855 E3.55808
G1 X-17.589 Y-7.044 E3.56578
G1 X-17.07 Y-7.639 E3.59204
G1 X-16.676 Y-8.019 E3.61025
G1 X-16.244 Y-8.408 E3.62958
G1 X-15.874 Y-8.702 E3.6453
G1 X-15.612 Y-8.991 E3.65828
G1 X-15.159 Y-9.41 E3.6788
G1 X-14.814 Y-9.765 E3.69526
G1 X-14.848 Y-9.935 E3.70103
G1 X-14.921 Y-10.721 E3.72729
G1 X-14.923 Y-11.435 E3.75103
G1 X-14.871 Y-12.223 E3.7773
G1 X-14.74 Y-13.002 E3.80357
G1 X-14.531 Y-13.763 E3.82982
G1 X-14.31 Y-14.361 E3.85103
G1 X-13.987 Y-15.082 E3.8773
G1 X-13.592 Y-15.766 E3.90357
G1 X-13.287 Y-16.205 E3.92135
G1 X-12.623 Y-17.026 E3.95647
G1 X-12.06 Y-17.58 E3.98274
G1 X-11.609 Y-17.951 E4.00217
G1 X-10.718 Y-18.58 E4.03844
G1 X-9.739 Y-19.089 E4.07514
G1 X-8.679 Y-19.504 E4.113
G1 X-7.598 Y-19.764 E4.14998
G1 X-7.231 Y-19.825 E4.16236
G1 X-6.446 Y-19.915 E4.18864
G1 X-5.455 Y-19.915 E4.2216
G1 X-5.032 Y-19.888 E4.2357
G1 X-4.248 Y-19.798 E4.26194
G1 X-3.358 Y-19.596 E4.2923
G1 X-2.968 Y-19.483 E4.3058
G1 X-2.07 Y-19.162 E4.33752
G1 X-1.626 Y-18.972 E4.35358
G1 X-.927 Y-18.631 E4.37945
G1 X-0.069 Y-18.137 E4.41238
G1 X0.458 Y-17.798 E4.43322
G1 X0.899 Y-17.492 E4.45107
G1 X1.323 Y-17.176 E4.46866
G1 X1.823 Y-16.771 E4.49006
G1 X2.248 Y-16.396 E4.50892
G1 X2.69 Y-15.974 E4.52924
G1 X2.999 Y-15.655 E4.54401
G1 X3.519 Y-15.061 E4.57027
G1 X4.129 Y-14.294 E4.60286
G1 X4.492 Y-13.803 E4.62317
G1 X5.059 Y-12.832 E4.66057
G1 X5.225 Y-12.57 E4.67089
G1 X5.577 Y-11.863 E4.69716
G1 X5.823 Y-11.225 E4.7199
G1 X6.014 Y-10.634 E4.74056
G1 X6.733 Y-9.857 E4.77577
G1 X7.42 Y-9.23 E4.8067
G1 X7.61 Y-9.011 E4.81635
G1 X8.412 Y-8.274 E4.85257
G1 X8.581 Y-8.078 E4.86118
G0 F3600 X8.295 Y-7.796
G1 F1200 X8.682 Y-7.461 E4.8782
G1 X9.431 Y-6.711 E4.91346
G1 X9.794 Y-6.291 E4.93192
G1 X10.266 Y-5.684 E4.9575
G1 X10.566 Y-5.202 E4.97638
G1 X10.682 Y-5.014 E4.98373
G1 X10.917 Y-4.708 E4.99656
G1 X11.337 Y-4.063 E5.02216
G1 X11.883 Y-3.135 E5.05797
G1 X12.113 Y-2.669 E5.07526
G1 X12.417 Y-1.963 E5.10082
G1 X12.491 Y-1.726 E5.10908
G1 X12.606 Y-1.493 E5.11772
G1 X12.884 Y-.834 E5.14151
G1 X13.123 Y-.246 E5.16262
G1 X13.385 Y0.514 E5.18936
G1 X13.57 Y1.164 E5.21184
G1 X13.742 Y1.914 E5.23743
G1 X13.883 Y2.609 E5.26102
G1 X14.09 Y3.447 E5.28973
G1 X14.189 Y3.938 E5.30638
G1 X14.275 Y4.449 E5.32362
G1 X14.356 Y4.977 E5.34139
G1 X14.408 Y5.679 E5.3648
G1 X14.473 Y6.219 E5.38289
G1 X14.572 Y7.226 E5.41654
G1 X14.626 Y8.233 E5.45008
G1 X14.653 Y9.099 E5.4789
G1 X14.674 Y10.043 E5.51031
G1 X14.641 Y11.324 E5.55293
G1 X14.64 Y12.099 E5.5787
G1 X14.628 Y13.376 E5.62118
G1 X14.602 Y14.095 E5.64511
G1 X14.65 Y15.749 E5.70014
G1 X14.627 Y16.539 E5.72643
G1 X14.56 Y17.22 E5.74919
G1 X14.487 Y17.75 E5.76699
G1 X14.361 Y18.565 E5.79441
G1 X14.204 Y19.318 E5.82
G1 X14.057 Y19.804 E5.83689
G1 X13.88 Y20.326 E5.85522
G1 X13.596 Y21.041 E5.88081
G1 X13.235 Y21.74 E5.90697
G1 X12.835 Y22.396 E5.93253
G1 X12.348 Y23.031 E5.95914
G1 X12.087 Y23.336 E5.9725
G1 X11.391 Y24.047 E6.00559
G1 X10.541 Y24.752 E6.04232
G1 X9.895 Y25.168 E6.06787
G1 X9.073 Y25.593 E6.09865
G1 X8.369 Y25.901 E6.12421
G1 X7.775 Y26.097 E6.14501
G1 X7.295 Y26.233 E6.16161
G1 X6.528 Y26.407 E6.18777
G1 X5.612 Y26.529 E6.2185
G1 X4.599 Y26.564 E6.25221
G1 X3.833 Y26.5 E6.27778
G1 X3.077 Y26.358 E6.30336
G1 X2.34 Y26.138 E6.32895
G1 X1.86 Y25.953 E6.34605
G1 X1.156 Y25.642 E6.37165
G1 X0.437 Y25.226 E6.39928
G1 X-.448 Y24.599 E6.43536
G1 X-1.018 Y24.083 E6.46093
G1 X-1.531 Y23.51 E6.48651
G1 X-1.996 Y22.882 E6.5125
G1 X-2.554 Y21.971 E6.54803
G1 X-2.809 Y21.478 E6.56649
G1 X-2.859 Y21.368 E6.57051
G1 X-3.31 Y20.618 E6.59962
G1 X-3.59 Y20.074 E6.61997
G1 X-3.666 Y19.909 E6.62601
G1 X-3.969 Y19.396 E6.64583
G1 X-4.212 Y19.833 E6.66246
G1 X-4.586 Y20.544 E6.68918
G1 X-4.949 Y21.063 E6.71024
G1 X-5.049 Y21.302 E6.71886
G1 X-5.569 Y22.316 E6.75676
G1 X-6.163 Y23.208 E6.7924
G1 X-6.578 Y23.702 E6.81386
G1 X-7.334 Y24.469 E6.84968
G1 X-7.936 Y24.948 E6.87527
G1 X-8.584 Y25.363 E6.90086
G1 X-9.416 Y25.819 E6.93242
G1 X-10.38 Y26.196 E6.96685
G1 X-11.279 Y26.434 E6.99778
G1 X-12.04 Y26.546 E7.02336
G1 X-12.809 Y26.579 E7.04896
G1 X-13.366 Y26.552 E7.06751
G1 X-14.133 Y26.495 E7.09309
G1 X-14.89 Y26.358 E7.11868
G1 X-15.722 Y26.126 E7.14741
G1 X-16.735 Y25.749 E7.18336
G1 X-17.72 Y25.273 E7.21974
G1 X-18.26 Y24.937 E7.2409
G1 X-19.001 Y24.383 E7.27167
G1 X-19.837 Y23.605 E7.30965
G1 X-20.339 Y23.023 E7.33522
G1 X-20.678 Y22.548 E7.35462
G1 X-21.073 Y21.907 E7.37967
G1 X-21.236 Y21.666 E7.38934
G1 X-21.597 Y20.987 E7.41492
G1 X-21.96 Y20.049 E7.44837
G1 X-22.188 Y19.315 E7.47394
G1 X-22.438 Y18.225 E7.51113
G1 X-22.501 Y17.808 E7.52516
G1 X-22.584 Y16.757 E7.56022
G1 X-22.601 Y14.565 E7.63313
G1 X-22.587 Y13.187 E7.67897
G1 X-22.632 Y12.314 E7.70804
G1 X-22.627 Y11.538 E7.73385
G1 X-22.609 Y10.829 E7.75744
G1 X-22.62 Y10.227 E7.77747
G1 X-22.644 Y9.352 E7.80658
G1 X-22.626 Y8.669 E7.82931
G1 X-22.594 Y8.001 E7.85155
G1 X-22.523 Y7.253 E7.87654
G1 X-22.466 Y6.059 E7.9163
G1 X-22.387 Y5.357 E7.93979
G1 X-22.31 Y4.834 E7.95738
G1 X-22.174 Y4.142 E7.98083
G1 X-22.131 Y3.689 E7.99597
G1 X-22.02 Y3.074 E8.01675
G1 X-21.888 Y2.485 E8.03683
G1 X-21.735 Y1.913 E8.05652
G1 X-21.455 Y0.909 E8.09119
G1 X-21.193 Y-0.055 E8.12442
G1 X-20.757 Y-1.216 E8.16566
G1 X-20.378 Y-2.035 E8.19568
G1 X-19.829 Y-3.096 E8.23541
G1 X-19.461 Y-3.831 E8.26275
G1 X-19.141 Y-4.364 E8.28343
G1 X-18.765 Y-4.934 E8.30614
G1 X-18.188 Y-5.696 E8.33793
G1 X-17.576 Y-6.44 E8.36997
G1 X-17.406 Y-6.609 E8.37794
G1 X-17.25 Y-6.828 E8.38689
G1 X-16.741 Y-7.404 E8.41245
G1 X-15.977 Y-8.111 E8.44708
G1 X-15.603 Y-8.408 E8.46296
G1 X-15.244 Y-8.792 E8.48044
G1 X-14.822 Y-9.171 E8.49931
G1 X-14.381 Y-9.633 E8.52055
G1 X-14.455 Y-10.012 E8.5334
G1 X-14.523 Y-10.778 E8.55897
G1 X-14.523 Y-11.429 E8.58063
G1 X-14.472 Y-12.197 E8.60623
G1 X-14.341 Y-12.955 E8.63181
G1 X-14.021 Y-14 E8.66816
G1 X-13.621 Y-14.918 E8.70147
G1 X-13.234 Y-15.582 E8.72703
G1 X-12.807 Y-16.179 E8.75144
G1 X-12.315 Y-16.77 E8.77702
G1 X-11.764 Y-17.307 E8.80261
G1 X-11.367 Y-17.633 E8.81969
G1 X-10.492 Y-18.249 E8.85528
G1 X-9.581 Y-18.722 E8.88943
G1 X-9.26 Y-18.861 E8.90106
G1 X-8.539 Y-19.129 E8.92664
G1 X-7.532 Y-19.37 E8.96108
G1 X-7.165 Y-19.431 E8.97346
G1 X-6.401 Y-19.517 E8.99903
G1 X-5.058 Y-19.489 E9.04371
G1 X-4.294 Y-19.4 E9.06929
G1 X-3.47 Y-19.212 E9.0974
G1 X-3.08 Y-19.099 E9.1109
G1 X-2.228 Y-18.794 E9.141
G1 X-1.784 Y-18.604 E9.15706
G1 X-1.12 Y-18.28 E9.18164
G1 X-.286 Y-17.801 E9.21363
G1 X0.241 Y-17.462 E9.23447
G1 X0.66 Y-17.171 E9.25144
G1 X1.084 Y-16.855 E9.26902
G1 X1.558 Y-16.471 E9.28931
G1 X1.983 Y-16.096 E9.30816
G1 X2.402 Y-15.696 E9.32743
G1 X2.711 Y-15.377 E9.3422
G1 X3.217 Y-14.797 E9.3678
G1 X3.818 Y-14.042 E9.3999
G1 X4.184 Y-13.544 E9.42046
G1 X4.701 Y-12.653 E9.45472
G1 X4.886 Y-12.356 E9.46636
G1 X5.226 Y-11.666 E9.49194
G1 X5.444 Y-11.098 E9.51218
G1 X5.654 Y-10.438 E9.53521
G1 X5.985 Y-10.062 E9.55187
G1 X6.184 Y-9.87 E9.56107
G1 X6.464 Y-9.558 E9.57501
G1 X6.601 Y-9.453 E9.58075
G1 X7.159 Y-8.924 E9.60633
G1 X7.331 Y-8.723 E9.61513
G1 X8.136 Y-7.983 E9.65149
G1 X8.295 Y-7.796 E9.65966
G0 F3600 X8.012 Y-7.513
G1 F1200 X8.42 Y-7.159 E9.67762
G1 X9.128 Y-6.449 E9.71097
G1 X9.491 Y-6.029 E9.72944
G1 X9.949 Y-5.438 E9.75431
G1 X10.236 Y-4.972 E9.77251
G1 X10.599 Y-4.464 E9.79328
G1 X11.008 Y-3.836 E9.8182
G1 X11.524 Y-2.958 E9.85207
G1 X11.754 Y-2.492 E9.86936
G1 X12.049 Y-1.805 E9.89423
G1 X12.121 Y-1.572 E9.90234
G1 X12.247 Y-1.316 E9.91183
G1 X12.514 Y-.684 E9.93465
G1 X12.753 Y-0.096 E9.95576
G1 X13.001 Y0.624 E9.98108
G1 X13.186 Y1.274 E10.00356
G1 X13.352 Y2.003 E10.02843
G1 X13.378 Y2.192 E10.03478
G1 X13.495 Y2.706 E10.05231
G1 X13.701 Y3.54 E10.08088
G1 X13.881 Y4.515 E10.11386
G1 X13.961 Y5.037 E10.13142
G1 X14.013 Y5.74 E10.15487
G1 X14.073 Y6.24 E10.17162
G1 X14.174 Y7.266 E10.20591
G1 X14.226 Y8.249 E10.23865
G1 X14.253 Y9.112 E10.26736
G1 X14.274 Y10.052 E10.29864
G1 X14.242 Y11.31 E10.34049
G1 X14.24 Y12.101 E10.3668
G1 X14.228 Y13.372 E10.40908
G1 X14.202 Y14.11 E10.43364
G1 X14.25 Y15.759 E10.48851
G1 X14.228 Y16.506 E10.51336
G1 X14.164 Y17.165 E10.53538
G1 X14.091 Y17.695 E10.55318
G1 X13.966 Y18.504 E10.58041
G1 X13.812 Y19.236 E10.60528
G1 X13.501 Y20.198 E10.63891
G1 X13.224 Y20.892 E10.66376
G1 X12.883 Y21.55 E10.68841
G1 X12.493 Y22.188 E10.71328
G1 X12.044 Y22.771 E10.73776
G1 X11.783 Y23.076 E10.75111
G1 X11.125 Y23.749 E10.78242
G1 X10.291 Y24.439 E10.81842
G1 X9.351 Y25.006 E10.85493
G1 X8.894 Y25.235 E10.87193
G1 X8.208 Y25.534 E10.89682
G1 X7.666 Y25.712 E10.9158
G1 X7.186 Y25.848 E10.93239
G1 X6.461 Y26.012 E10.95711
G1 X5.583 Y26.13 E10.98658
G1 X4.591 Y26.163 E11.01959
G1 X3.846 Y26.098 E11.04446
G1 X3.112 Y25.954 E11.06934
G1 X2.397 Y25.733 E11.09423
G1 X1.282 Y25.257 E11.13455
G1 X0.656 Y24.892 E11.15866
G1 X-.211 Y24.276 E11.19403
G1 X-.763 Y23.771 E11.21891
G1 X-1.461 Y22.942 E11.25496
G1 X-1.671 Y22.649 E11.26695
G1 X-2.199 Y21.787 E11.30057
G1 X-2.454 Y21.294 E11.31903
G1 X-2.515 Y21.159 E11.32396
G1 X-2.635 Y20.991 E11.33082
G1 X-2.954 Y20.435 E11.35214
G1 X-3.234 Y19.891 E11.37249
G1 X-3.313 Y19.721 E11.37873
G1 X-3.991 Y18.566 E11.42327
G1 X-4.302 Y19.173 E11.44596
G1 X-4.564 Y19.643 E11.46385
G1 X-4.94 Y20.356 E11.49066
G1 X-5.304 Y20.876 E11.51178
G1 X-5.418 Y21.147 E11.52155
G1 X-5.909 Y22.106 E11.55739
G1 X-6.493 Y22.981 E11.59238
G1 X-6.873 Y23.432 E11.61199
G1 X-7.615 Y24.183 E11.64711
G1 X-8.202 Y24.647 E11.67199
G1 X-8.835 Y25.045 E11.69686
G1 X-9.624 Y25.475 E11.72675
G1 X-10.499 Y25.814 E11.75796
G1 X-11.378 Y26.046 E11.7882
G1 X-12.119 Y26.152 E11.81309
G1 X-12.866 Y26.178 E11.83795
G1 X-13.398 Y26.151 E11.85567
G1 X-14.144 Y26.09 E11.88057
G1 X-15.153 Y25.875 E11.91488
G1 X-15.61 Y25.742 E11.93071
G1 X-16.569 Y25.385 E11.96474
G1 X-17.595 Y24.883 E12.00273
G1 X-18.035 Y24.607 E12.02001
G1 X-18.758 Y24.065 E12.05006
G1 X-19.576 Y23.299 E12.08734
G1 X-20.06 Y22.729 E12.11221
G1 X-20.532 Y22.041 E12.13996
G1 X-20.904 Y21.442 E12.16341
G1 X-21.252 Y20.78 E12.18829
G1 X-21.578 Y19.931 E12.21853
G1 X-21.806 Y19.197 E12.2441
G1 X-22.042 Y18.166 E12.27928
G1 X-22.105 Y17.749 E12.2933
G1 X-22.184 Y16.754 E12.3265
G1 X-22.201 Y14.568 E12.39921
G1 X-22.187 Y13.173 E12.44561
G1 X-22.232 Y12.317 E12.47412
G1 X-22.227 Y11.541 E12.49993
G1 X-22.209 Y10.833 E12.52349
G1 X-22.221 Y10.196 E12.54468
G1 X-22.245 Y9.363 E12.57239
G1 X-22.227 Y8.68 E12.59512
G1 X-22.194 Y8.022 E12.61703
G1 X-22.123 Y7.272 E12.64209
G1 X-22.068 Y6.1 E12.68111
G1 X-21.991 Y5.415 E12.70404
G1 X-21.914 Y4.892 E12.72162
G1 X-21.786 Y4.237 E12.74382
G1 X-21.732 Y3.723 E12.76101
G1 X-21.63 Y3.161 E12.78
G1 X-21.498 Y2.572 E12.80008
G1 X-21.353 Y2.031 E12.81871
G1 X-21.068 Y1.009 E12.854
G1 X-20.806 Y0.046 E12.88719
G1 X-20.384 Y-1.071 E12.92691
G1 X-20.026 Y-1.845 E12.95527
G1 X-19.472 Y-2.913 E12.99529
G1 X-19.09 Y-3.675 E13.02364
G1 X-18.807 Y-4.143 E13.04183
G1 X-18.431 Y-4.713 E13.06454
G1 X-17.886 Y-5.434 E13.0946
G1 X-17.263 Y-6.189 E13.12716
G1 X-17.094 Y-6.357 E13.13508
G1 X-16.911 Y-6.611 E13.1455
G1 X-16.141 Y-7.425 E13.18276
G1 X-15.709 Y-7.814 E13.2021
G1 X-15.337 Y-8.109 E13.21789
G1 X-14.64 Y-8.801 E13.25056
G1 X-14.524 Y-8.9 E13.25563
G1 X-14.354 Y-9.103 E13.26444
G1 X-13.946 Y-9.496 E13.28328
G1 X-14.061 Y-10.089 E13.30337
G1 X-14.127 Y-11.157 E13.33896
