;FLAVOR:Marlin
;TIME:1396
;Filament used: 0.988808m
;Layer height: 0.15
;MINX:127.2
;MINY:127.2
;MINZ:0.2
;MAXX:172.8
;MAXY:172.8
;MAXZ:9.95
;Generated with Cura_SteamEngine 4.5.0
M140 S60
M105
M190 S60
M104 S200
M105
M109 S200
M82 ;absolute extrusion mode
; -- START GCODE --
G21                     ;set units to millimetres
G90                     ;set to absolute positioning
M106 S0                 ;set fan speed to zero (turned off)
G28                     ;home all axis
G92 E0                  ;zero the extruded length
G1 Z1 F1000             ;move up slightly
G1 Y60.0 Z0 E9.0 F1000.0;intro line
G1 Y100.0 E21.5 F1000.0 ;continue line
G92 E0                  ;zero the extruded length again
; -- end of START GCODE --
G92 E0
G92 E0
G1 F2700 E-5
;LAYER_COUNT:66
;LAYER:0
M107
G0 F3600 X129.485 Y129.602 Z0.2
;TYPE:SKIRT
G1 F2700 E0
G1 F1200 X130.188 Y128.955 E0.03178
G1 X130.824 Y128.488 E0.05802
G1 X131.504 Y128.087 E0.08428
G1 X132.222 Y127.757 E0.11056
G1 X132.969 Y127.502 E0.13681
G1 X133.738 Y127.323 E0.16307
G1 X134.522 Y127.223 E0.18936
G1 X135.117 Y127.2 E0.20917
G1 X164.883 Y127.2 E1.19919
G1 X165.672 Y127.24 E1.22546
G1 X166.452 Y127.359 E1.25171
G1 X167.217 Y127.557 E1.27799
G1 X167.957 Y127.831 E1.30423
G1 X168.666 Y128.179 E1.3305
G1 X169.337 Y128.597 E1.3568
G1 X169.961 Y129.08 E1.38304
G1 X170.398 Y129.485 E1.40286
G1 X171.045 Y130.188 E1.43464
G1 X171.512 Y130.824 E1.46088
G1 X171.913 Y131.504 E1.48714
G1 X172.243 Y132.222 E1.51342
G1 X172.498 Y132.969 E1.53967
G1 X172.677 Y133.738 E1.56593
G1 X172.777 Y134.522 E1.59222
G1 X172.8 Y135.117 E1.61202
G1 X172.8 Y164.883 E2.60204
G1 X172.76 Y165.672 E2.62832
G1 X172.641 Y166.452 E2.65456
G1 X172.443 Y167.217 E2.68085
G1 X172.169 Y167.957 E2.70709
G1 X171.821 Y168.666 E2.73336
G1 X171.403 Y169.337 E2.75965
G1 X170.92 Y169.961 E2.7859
G1 X170.515 Y170.398 E2.80572
G1 X169.812 Y171.045 E2.83749
G1 X169.176 Y171.512 E2.86374
G1 X168.496 Y171.913 E2.88999
G1 X167.778 Y172.243 E2.91628
G1 X167.031 Y172.498 E2.94253
G1 X166.262 Y172.677 E2.96879
G1 X165.478 Y172.777 E2.99508
G1 X164.883 Y172.8 E3.01488
G1 X135.117 Y172.8 E4.0049
G1 X134.328 Y172.76 E4.03118
G1 X133.548 Y172.641 E4.05742
G1 X132.783 Y172.443 E4.0837
G1 X132.043 Y172.169 E4.10995
G1 X131.334 Y171.821 E4.13622
G1 X130.663 Y171.403 E4.16251
G1 X130.039 Y170.92 E4.18876
G1 X129.602 Y170.515 E4.20857
G1 X128.955 Y169.812 E4.24035
G1 X128.488 Y169.176 E4.2666
G1 X128.087 Y168.496 E4.29285
G1 X127.757 Y167.778 E4.31913
G1 X127.502 Y167.031 E4.34539
G1 X127.323 Y166.262 E4.37165
G1 X127.223 Y165.478 E4.39794
G1 X127.2 Y164.883 E4.41774
G1 X127.2 Y135.117 E5.40776
G1 X127.24 Y134.328 E5.43404
G1 X127.359 Y133.548 E5.46028
G1 X127.557 Y132.783 E5.48656
G1 X127.831 Y132.043 E5.51281
G1 X128.179 Y131.334 E5.53908
G1 X128.597 Y130.663 E5.56537
G1 X129.08 Y130.039 E5.59162
G1 X129.485 Y129.602 E5.61143
G0 F3600 X129.884 Y129.767
G1 F1200 X130.456 Y129.253 E5.63701
G1 X131.078 Y128.8 E5.6626
G1 X131.743 Y128.414 E5.68818
G1 X132.445 Y128.099 E5.71377
G1 X133.176 Y127.859 E5.73936
G1 X133.927 Y127.696 E5.76492
G1 X134.692 Y127.612 E5.79052
G1 X164.883 Y127.6 E6.79467
G1 X165.651 Y127.64 E6.82025
G1 X166.411 Y127.759 E6.84584
G1 X167.154 Y127.957 E6.87141
G1 X167.873 Y128.231 E6.897
G1 X168.559 Y128.578 E6.92257
G1 X169.206 Y128.994 E6.94816
G1 X169.806 Y129.475 E6.97373
G1 X170.233 Y129.884 E6.9934
G1 X170.747 Y130.456 E7.01898
G1 X171.2 Y131.078 E7.04457
G1 X171.586 Y131.743 E7.07014
G1 X171.901 Y132.445 E7.09573
G1 X172.141 Y133.176 E7.12132
G1 X172.304 Y133.927 E7.14688
G1 X172.388 Y134.692 E7.17248
G1 X172.4 Y164.883 E8.17664
G1 X172.36 Y165.651 E8.20222
G1 X172.241 Y166.411 E8.2278
G1 X172.043 Y167.154 E8.25338
G1 X171.769 Y167.873 E8.27897
G1 X171.422 Y168.559 E8.30454
G1 X171.006 Y169.206 E8.33012
G1 X170.525 Y169.806 E8.3557
G1 X170.116 Y170.233 E8.37536
G1 X169.544 Y170.747 E8.40094
G1 X168.922 Y171.2 E8.42654
G1 X168.257 Y171.586 E8.45211
G1 X167.555 Y171.901 E8.4777
G1 X166.824 Y172.141 E8.50329
G1 X166.073 Y172.304 E8.52885
G1 X165.308 Y172.388 E8.55445
G1 X135.117 Y172.4 E9.5586
G1 X134.349 Y172.36 E9.58418
G1 X133.589 Y172.241 E9.60977
G1 X132.846 Y172.043 E9.63534
G1 X132.127 Y171.769 E9.66093
G1 X131.441 Y171.422 E9.6865
G1 X130.794 Y171.006 E9.71209
G1 X130.194 Y170.525 E9.73766
G1 X129.767 Y170.116 E9.75733
G1 X129.253 Y169.544 E9.78291
G1 X128.8 Y168.922 E9.8085
G1 X128.414 Y168.257 E9.83408
G1 X128.099 Y167.555 E9.85967
G1 X127.859 Y166.824 E9.88526
G1 X127.696 Y166.073 E9.91082
G1 X127.612 Y165.308 E9.93641
G1 X127.6 Y135.117 E10.94057
G1 X127.64 Y134.349 E10.96615
G1 X127.759 Y133.589 E10.99173
G1 X127.957 Y132.846 E11.01731
G1 X128.231 Y132.127 E11.0429
G1 X128.578 Y131.441 E11.06847
G1 X128.994 Y130.794 E11.09405
G1 X129.475 Y130.194 E11.11963
G1 X129.884 Y129.767 E11.1393
G0 F3600 X130.05 Y130.167
G1 F1200 X130.724 Y129.55 E11.16969
G1 X131.33 Y129.113 E11.19454
G1 X131.98 Y128.742 E11.21943
G1 X132.666 Y128.443 E11.24432
G1 X133.38 Y128.219 E11.26921
G1 X134.113 Y128.072 E11.29407
G1 X135.117 Y128 E11.32755
G1 X164.883 Y128 E12.31757
G1 X165.63 Y128.04 E12.34246
G1 X166.368 Y128.159 E12.36732
G1 X167.09 Y128.357 E12.39222
G1 X167.786 Y128.63 E12.41709
G1 X168.449 Y128.977 E12.44197
G1 X169.072 Y129.392 E12.46687
G1 X169.833 Y130.05 E12.50033
G1 X170.45 Y130.724 E12.53072
G1 X170.887 Y131.33 E12.55557
G1 X171.258 Y131.98 E12.58047
G1 X171.557 Y132.666 E12.60536
G1 X171.781 Y133.38 E12.63025
G1 X171.928 Y134.113 E12.65511
G1 X172 Y135.117 E12.68859
G1 X172 Y164.883 E13.67861
G1 X171.96 Y165.63 E13.70349
G1 X171.841 Y166.368 E13.72835
G1 X171.643 Y167.09 E13.75326
G1 X171.37 Y167.786 E13.77812
G1 X171.023 Y168.449 E13.80301
G1 X170.608 Y169.072 E13.82791
G1 X169.95 Y169.833 E13.86137
G1 X169.276 Y170.45 E13.89176
G1 X168.67 Y170.887 E13.91661
G1 X168.02 Y171.258 E13.9415
G1 X167.334 Y171.557 E13.96639
G1 X166.62 Y171.781 E13.99128
G1 X165.887 Y171.928 E14.01615
G1 X164.883 Y172 E14.04963
G1 X135.117 Y172 E15.03965
G1 X134.37 Y171.96 E15.06453
G1 X133.632 Y171.841 E15.08939
G1 X132.91 Y171.643 E15.11429
G1 X132.214 Y171.37 E15.13916
G1 X131.551 Y171.023 E15.16405
G1 X130.928 Y170.608 E15.18894
G1 X130.167 Y169.95 E15.2224
G1 X129.55 Y169.276 E15.2528
G1 X129.113 Y168.67 E15.27765
G1 X128.742 Y168.02 E15.30254
G1 X128.443 Y167.334 E15.32743
G1 X128.219 Y166.62 E15.35232
G1 X128.072 Y165.887 E15.37718
G1 X128 Y164.883 E15.41066
G1 X128 Y135.117 E16.40068
G1 X128.04 Y134.37 E16.42556
G1 X128.159 Y133.632 E16.45043
G1 X128.357 Y132.91 E16.47533
G1 X128.63 Y132.214 E16.50019
G1 X128.977 Y131.551 E16.52508
G1 X129.392 Y130.928 E16.54998
G1 X130.05 Y130.167 E16.58344
G0 F3600 X130.333 Y130.45
G1 F1200 X130.991 Y129.849 E16.61308
G1 X131.582 Y129.426 E16.63725
G1 X132.216 Y129.072 E16.6614
G1 X132.885 Y128.789 E16.68556
G1 X133.581 Y128.581 E16.70972
G1 X134.296 Y128.451 E16.7339
G1 X135.117 Y128.4 E16.76125
G1 X164.883 Y128.4 E17.75128
G1 X165.608 Y128.44 E17.77543
G1 X166.325 Y128.559 E17.7996
G1 X167.024 Y128.757 E17.82376
G1 X167.697 Y129.03 E17.84792
G1 X168.336 Y129.375 E17.87207
G1 X168.933 Y129.789 E17.89624
G1 X169.55 Y130.333 E17.92359
G1 X170.151 Y130.991 E17.95323
G1 X170.574 Y131.582 E17.97741
G1 X170.928 Y132.216 E18.00156
G1 X171.211 Y132.885 E18.02572
G1 X171.419 Y133.581 E18.04988
G1 X171.549 Y134.296 E18.07405
G1 X171.6 Y135.117 E18.10141
G1 X171.6 Y164.883 E19.09143
G1 X171.56 Y165.608 E19.11558
G1 X171.441 Y166.325 E19.13975
G1 X171.243 Y167.024 E19.16392
G1 X170.97 Y167.697 E19.18807
G1 X170.625 Y168.336 E19.21223
G1 X170.211 Y168.933 E19.23639
G1 X169.667 Y169.55 E19.26375
G1 X169.009 Y170.151 E19.29339
G1 X168.418 Y170.574 E19.31756
G1 X167.784 Y170.928 E19.34171
G1 X167.115 Y171.211 E19.36587
G1 X166.419 Y171.419 E19.39003
G1 X165.704 Y171.549 E19.41421
G1 X164.883 Y171.6 E19.44156
G1 X135.117 Y171.6 E20.43159
G1 X134.392 Y171.56 E20.45574
G1 X133.675 Y171.441 E20.47991
G1 X132.976 Y171.243 E20.50407
G1 X132.303 Y170.97 E20.52823
G1 X131.664 Y170.625 E20.55238
G1 X131.067 Y170.211 E20.57655
G1 X130.45 Y169.667 E20.6039
G1 X129.849 Y169.009 E20.63354
G1 X129.426 Y168.418 E20.65772
G1 X129.072 Y167.784 E20.68187
G1 X128.789 Y167.115 E20.70603
G1 X128.581 Y166.419 E20.73019
G1 X128.451 Y165.704 E20.75436
G1 X128.4 Y164.883 E20.78172
G1 X128.4 Y135.117 E21.77174
G1 X128.44 Y134.392 E21.79589
G1 X128.559 Y133.675 E21.82006
G1 X128.757 Y132.976 E21.84423
G1 X129.03 Y132.303 E21.86838
G1 X129.375 Y131.664 E21.89254
G1 X129.789 Y131.067 E21.9167
G1 X130.333 Y130.45 E21.94406
G0 F3600 X130.616 Y130.733
G1 F1200 X131.258 Y130.147 E21.97297
G1 X131.833 Y129.741 E21.99638
G1 X132.451 Y129.403 E22.01981
G1 X133.102 Y129.136 E22.04321
G1 X133.78 Y128.946 E22.06663
G1 X134.475 Y128.833 E22.09005
G1 X135.117 Y128.8 E22.11143
G1 X164.883 Y128.8 E23.10145
G1 X165.586 Y128.84 E23.12487
G1 X166.28 Y128.959 E23.14829
G1 X166.955 Y129.157 E23.17169
G1 X167.604 Y129.429 E23.19509
G1 X168.218 Y129.774 E23.21852
G1 X168.789 Y130.185 E23.24192
G1 X169.267 Y130.616 E23.26332
G1 X169.853 Y131.258 E23.29224
G1 X170.259 Y131.833 E23.31565
G1 X170.597 Y132.451 E23.33908
G1 X170.864 Y133.102 E23.36248
G1 X171.054 Y133.78 E23.3859
G1 X171.167 Y134.475 E23.40932
G1 X171.2 Y135.117 E23.4307
G1 X171.2 Y164.883 E24.42072
G1 X171.16 Y165.586 E24.44414
G1 X171.041 Y166.28 E24.46756
G1 X170.843 Y166.955 E24.49095
G1 X170.571 Y167.604 E24.51436
G1 X170.226 Y168.218 E24.53778
G1 X169.815 Y168.789 E24.56118
G1 X169.384 Y169.267 E24.58259
G1 X168.742 Y169.853 E24.6115
G1 X168.167 Y170.259 E24.63491
G1 X167.549 Y170.597 E24.65834
G1 X166.898 Y170.864 E24.68174
G1 X166.22 Y171.054 E24.70516
G1 X165.525 Y171.167 E24.72858
G1 X164.883 Y171.2 E24.74996
G1 X135.117 Y171.2 E25.73998
G1 X134.414 Y171.16 E25.7634
G1 X133.72 Y171.041 E25.78682
G1 X133.045 Y170.843 E25.81022
G1 X132.396 Y170.571 E25.83362
G1 X131.782 Y170.226 E25.85705
G1 X131.211 Y169.815 E25.88045
G1 X130.733 Y169.384 E25.90186
G1 X130.147 Y168.742 E25.93077
G1 X129.741 Y168.167 E25.95418
G1 X129.403 Y167.549 E25.97761
G1 X129.136 Y166.898 E26.00101
G1 X128.946 Y166.22 E26.02443
G1 X128.833 Y165.525 E26.04785
G1 X128.8 Y164.883 E26.06923
G1 X128.8 Y135.117 E27.05925
G1 X128.84 Y134.414 E27.08267
G1 X128.959 Y133.72 E27.10609
G1 X129.157 Y133.045 E27.12949
G1 X129.429 Y132.396 E27.15289
G1 X129.774 Y131.782 E27.17632
G1 X130.185 Y131.211 E27.19971
G1 X130.616 Y130.733 E27.22112
G0 F3600 X131.016 Y130.899
G1 F1200 X131.525 Y130.446 E27.24378
G1 X132.083 Y130.057 E27.26641
G1 X132.683 Y129.735 E27.28906
G1 X133.317 Y129.486 E27.31171
G1 X133.976 Y129.313 E27.33437
G1 X134.65 Y129.219 E27.35701
G1 X164.883 Y129.2 E28.36256
G1 X165.563 Y129.24 E28.38522
G1 X166.233 Y129.359 E28.40785
G1 X166.885 Y129.556 E28.4305
G1 X167.509 Y129.828 E28.45314
G1 X168.097 Y130.172 E28.4758
G1 X168.641 Y130.582 E28.49846
G1 X169.101 Y131.016 E28.51949
G1 X169.554 Y131.525 E28.54216
G1 X169.943 Y132.083 E28.56478
G1 X170.265 Y132.683 E28.58743
G1 X170.514 Y133.317 E28.61008
G1 X170.687 Y133.976 E28.63274
G1 X170.781 Y134.65 E28.65538
G1 X170.8 Y164.883 E29.66093
G1 X170.76 Y165.563 E29.68359
G1 X170.641 Y166.233 E29.70622
G1 X170.444 Y166.885 E29.72888
G1 X170.172 Y167.509 E29.75152
G1 X169.828 Y168.097 E29.77417
G1 X169.418 Y168.641 E29.79683
G1 X168.984 Y169.101 E29.81787
G1 X168.475 Y169.554 E29.84053
G1 X167.917 Y169.943 E29.86315
G1 X167.317 Y170.265 E29.8858
G1 X166.683 Y170.514 E29.90846
G1 X166.024 Y170.687 E29.93112
G1 X165.35 Y170.781 E29.95375
G1 X135.117 Y170.8 E30.9593
G1 X134.437 Y170.76 E30.98196
G1 X133.767 Y170.641 E31.00459
G1 X133.115 Y170.444 E31.02725
G1 X132.491 Y170.172 E31.04989
G1 X131.903 Y169.828 E31.07255
G1 X131.359 Y169.418 E31.0952
G1 X130.899 Y168.984 E31.11624
G1 X130.446 Y168.475 E31.1389
G1 X130.057 Y167.917 E31.16152
G1 X129.735 Y167.317 E31.18417
G1 X129.486 Y166.683 E31.20683
G1 X129.313 Y166.024 E31.22949
G1 X129.219 Y165.35 E31.25212
G1 X129.2 Y135.117 E32.25768
G1 X129.24 Y134.437 E32.28033
G1 X129.359 Y133.767 E32.30297
G1 X129.556 Y133.115 E32.32562
G1 X129.828 Y132.491 E32.34826
G1 X130.172 Y131.903 E32.37092
G1 X130.582 Y131.359 E32.39357
G1 X131.016 Y130.899 E32.41461
G0 F3600 X131.182 Y131.299
G1 F1200 X131.791 Y130.746 E32.44197
G1 X132.332 Y130.374 E32.46381
G1 X132.914 Y130.07 E32.48565
G1 X133.529 Y129.839 E32.5075
G1 X134.168 Y129.684 E32.52937
G1 X135.117 Y129.6 E32.56105
G1 X164.883 Y129.6 E33.55107
G1 X165.539 Y129.64 E33.57293
G1 X166.185 Y129.759 E33.59478
G1 X166.812 Y129.956 E33.61664
G1 X167.41 Y130.228 E33.63849
G1 X167.971 Y130.57 E33.66034
G1 X168.701 Y131.182 E33.69203
G1 X169.254 Y131.791 E33.71939
G1 X169.626 Y132.332 E33.74122
G1 X169.93 Y132.914 E33.76306
G1 X170.161 Y133.529 E33.78491
G1 X170.316 Y134.168 E33.80678
G1 X170.4 Y135.117 E33.83847
G1 X170.4 Y164.883 E34.82849
G1 X170.36 Y165.539 E34.85035
G1 X170.241 Y166.185 E34.8722
G1 X170.044 Y166.812 E34.89406
G1 X169.772 Y167.41 E34.91591
G1 X169.43 Y167.971 E34.93776
G1 X168.818 Y168.701 E34.96944
G1 X168.209 Y169.254 E34.9968
G1 X167.668 Y169.626 E35.01864
G1 X167.086 Y169.93 E35.04048
G1 X166.471 Y170.161 E35.06233
G1 X165.832 Y170.316 E35.0842
G1 X164.883 Y170.4 E35.11589
G1 X135.117 Y170.4 E36.10591
G1 X134.461 Y170.36 E36.12777
G1 X133.815 Y170.241 E36.14962
G1 X133.188 Y170.044 E36.17147
G1 X132.59 Y169.772 E36.19332
G1 X132.029 Y169.43 E36.21518
G1 X131.299 Y168.818 E36.24686
G1 X130.746 Y168.209 E36.27422
G1 X130.374 Y167.668 E36.29606
G1 X130.07 Y167.086 E36.3179
G1 X129.839 Y166.471 E36.33975
G1 X129.684 Y165.832 E36.36162
G1 X129.6 Y164.883 E36.3933
G1 X129.6 Y135.117 E37.38333
G1 X129.64 Y134.461 E37.40519
G1 X129.759 Y133.815 E37.42703
G1 X129.956 Y133.188 E37.44889
G1 X130.228 Y132.59 E37.47074
G1 X130.57 Y132.029 E37.4926
G1 X131.182 Y131.299 E37.52428
G0 F3600 X131.464 Y131.581
G1 F1200 X132.056 Y131.047 E37.5508
G1 X132.579 Y130.692 E37.57182
G1 X133.143 Y130.406 E37.59285
G1 X133.738 Y130.194 E37.61386
G1 X134.356 Y130.058 E37.63491
G1 X135.117 Y130 E37.66029
G1 X164.883 Y130 E38.65031
G1 X165.514 Y130.04 E38.67134
G1 X166.135 Y130.159 E38.69237
G1 X166.735 Y130.356 E38.71338
G1 X167.307 Y130.627 E38.73443
G1 X167.839 Y130.967 E38.75543
G1 X168.419 Y131.464 E38.78083
G1 X168.953 Y132.056 E38.80735
G1 X169.308 Y132.579 E38.82837
G1 X169.594 Y133.143 E38.84941
G1 X169.806 Y133.738 E38.87041
G1 X169.942 Y134.356 E38.89146
G1 X170 Y135.117 E38.91685
G1 X170 Y164.883 E39.90687
G1 X169.96 Y165.514 E39.9279
G1 X169.841 Y166.135 E39.94893
G1 X169.644 Y166.735 E39.96993
G1 X169.373 Y167.307 E39.99098
G1 X169.033 Y167.839 E40.01198
G1 X168.536 Y168.419 E40.03739
G1 X167.944 Y168.953 E40.0639
G1 X167.421 Y169.308 E40.08493
G1 X166.857 Y169.594 E40.10596
G1 X166.262 Y169.806 E40.12697
G1 X165.644 Y169.942 E40.14801
G1 X164.883 Y170 E40.1734
G1 X135.117 Y170 E41.16342
G1 X134.486 Y169.96 E41.18445
G1 X133.865 Y169.841 E41.20548
G1 X133.265 Y169.644 E41.22648
G1 X132.693 Y169.373 E41.24754
G1 X132.161 Y169.033 E41.26854
G1 X131.581 Y168.536 E41.29394
G1 X131.047 Y167.944 E41.32046
G1 X130.692 Y167.421 E41.34148
G1 X130.406 Y166.857 E41.36251
G1 X130.194 Y166.262 E41.38352
G1 X130.058 Y165.644 E41.40457
G1 X130 Y164.883 E41.42995
G1 X130 Y135.117 E42.41997
G1 X130.04 Y134.486 E42.441
G1 X130.159 Y133.865 E42.46203
G1 X130.356 Y133.265 E42.48304
G1 X130.627 Y132.693 E42.50409
G1 X130.967 Y132.161 E42.52509
G1 X131.464 Y131.581 E42.55049
G0 F3600 X131.747 Y131.864
G1 F1200 X132.32 Y131.348 E42.57614
G1 X132.825 Y131.012 E42.59631
G1 X133.369 Y130.745 E42.61647
G1 X133.944 Y130.552 E42.63664
G1 X134.539 Y130.436 E42.65681
G1 X135.117 Y130.4 E42.67607
G1 X164.883 Y130.4 E43.66609
G1 X165.488 Y130.44 E43.68625
G1 X166.082 Y130.559 E43.7064
G1 X166.656 Y130.755 E43.72658
G1 X167.199 Y131.026 E43.74676
G1 X167.702 Y131.365 E43.76694
G1 X168.136 Y131.747 E43.78617
G1 X168.652 Y132.32 E43.81181
G1 X168.988 Y132.825 E43.83199
G1 X169.255 Y133.369 E43.85214
G1 X169.448 Y133.944 E43.87232
G1 X169.564 Y134.539 E43.89248
G1 X169.6 Y135.117 E43.91174
G1 X169.6 Y164.883 E44.90176
G1 X169.56 Y165.488 E44.92193
G1 X169.441 Y166.082 E44.94208
