;FLAVOR:Marlin
;TIME:3574
;Filament used: 2.11309m
;Layer height: 0.15
;MINX:117.101
;MINY:117.101
;MINZ:0.2
;MAXX:182.899
;MAXY:182.898
;MAXZ:8.45
;Generated with Cura_SteamEngine 4.5.0
M140 S60
M105
M190 S60
M104 S200
M105
M109 S200
M82 ;absolute extrusion mode
; -- START GCODE --
G21                     ;set units to millimetres
G90                     ;set to absolute positioning
M106 S0                 ;set fan speed to zero (turned off)
G28                     ;home all axis
G92 E0                  ;zero the extruded length
G1 Z1 F1000             ;move up slightly
G1 Y60.0 Z0 E9.0 F1000.0;intro line
G1 Y100.0 E21.5 F1000.0 ;continue line
G92 E0                  ;zero the extruded length again
; -- end of START GCODE --
G92 E0
G92 E0
G1 F2700 E-5
;LAYER_COUNT:56
;LAYER:0
M107
G0 F3600 X126.533 Y126.944 Z0.2
;TYPE:SKIRT
G1 F2700 E0
G1 F1200 X126.973 Y126.504 E0.0207
G1 X127.592 Y125.933 E0.04871
G1 X128.618 Y125.079 E0.09311
G1 X129.607 Y124.339 E0.13419
G1 X130.411 Y123.765 E0.16705
G1 X131.077 Y123.341 E0.1933
G1 X131.783 Y122.986 E0.21959
G1 X132.52 Y122.704 E0.24583
G1 X133.283 Y122.498 E0.27212
G1 X133.959 Y122.383 E0.29493
G1 X134.945 Y122.299 E0.32784
G1 X135.735 Y122.32 E0.35412
G1 X136.518 Y122.421 E0.38038
G1 X137.287 Y122.601 E0.40665
G1 X138.034 Y122.858 E0.43293
G1 X138.981 Y123.321 E0.46799
G1 X139.181 Y122.693 E0.48991
G1 X139.495 Y121.968 E0.51619
G1 X139.881 Y121.279 E0.54245
G1 X140.335 Y120.633 E0.56871
G1 X140.841 Y120.048 E0.59444
G1 X141.54 Y119.373 E0.62676
G1 X142.166 Y118.891 E0.65304
G1 X142.837 Y118.475 E0.6793
G1 X143.546 Y118.128 E0.70555
G1 X144.287 Y117.856 E0.7318
G1 X145.181 Y117.634 E0.76244
G1 X146.035 Y117.475 E0.79133
G1 X147.187 Y117.3 E0.83009
G1 X148.364 Y117.171 E0.86947
G1 X149.697 Y117.102 E0.91387
G1 X150.326 Y117.101 E0.93479
G1 X151.161 Y117.134 E0.96258
G1 X151.662 Y117.17 E0.97929
G1 X152.515 Y117.259 E1.00781
G1 X153.698 Y117.426 E1.04755
G1 X154.688 Y117.592 E1.08094
G1 X155.459 Y117.762 E1.10719
G1 X156.209 Y118.01 E1.13347
G1 X156.93 Y118.332 E1.15973
G1 X157.615 Y118.726 E1.18601
G1 X158.193 Y119.136 E1.20958
G1 X158.95 Y119.778 E1.2426
G1 X159.491 Y120.353 E1.26886
G1 X159.972 Y120.98 E1.29514
G1 X160.387 Y121.652 E1.32141
G1 X160.732 Y122.362 E1.34766
G1 X161.065 Y123.341 E1.38206
G1 X161.658 Y123.035 E1.40425
G1 X162.393 Y122.745 E1.43053
G1 X163.153 Y122.532 E1.45678
G1 X163.931 Y122.396 E1.48305
G1 X164.719 Y122.34 E1.50933
G1 X165.384 Y122.351 E1.53145
G1 X166.17 Y122.42 E1.55769
G1 X166.946 Y122.568 E1.58397
G1 X167.703 Y122.793 E1.61023
G1 X168.433 Y123.094 E1.6365
G1 X169.129 Y123.468 E1.66278
G1 X169.614 Y123.786 E1.68207
G1 X170.293 Y124.268 E1.70976
G1 X171.128 Y124.886 E1.74431
G1 X172.046 Y125.622 E1.78345
G1 X173.051 Y126.527 E1.82843
G1 X173.501 Y126.977 E1.8496
G1 X174.071 Y127.596 E1.87758
G1 X174.92 Y128.617 E1.92175
G1 X175.661 Y129.609 E1.96293
G1 X176.221 Y130.395 E1.99503
G1 X176.646 Y131.061 E2.02131
G1 X177.001 Y131.766 E2.04756
G1 X177.283 Y132.503 E2.07381
G1 X177.489 Y133.266 E2.10009
G1 X177.61 Y133.983 E2.12428
G1 X177.689 Y134.97 E2.15721
G1 X177.663 Y135.759 E2.18347
G1 X177.559 Y136.542 E2.20974
G1 X177.375 Y137.31 E2.236
G1 X177.115 Y138.055 E2.26225
G1 X176.666 Y138.968 E2.29609
G1 X177.296 Y139.169 E2.31808
G1 X178.02 Y139.483 E2.34433
G1 X178.709 Y139.869 E2.3706
G1 X179.355 Y140.323 E2.39686
G1 X180.227 Y141.116 E2.43606
G1 X180.891 Y141.878 E2.46968
G1 X181.34 Y142.528 E2.49595
G1 X181.721 Y143.22 E2.52223
G1 X182.03 Y143.946 E2.54847
G1 X182.264 Y144.701 E2.57476
G1 X182.393 Y145.306 E2.59534
G1 X182.535 Y146.129 E2.62311
G1 X182.69 Y147.137 E2.65703
G1 X182.825 Y148.332 E2.69703
G1 X182.862 Y148.832 E2.71371
G1 X182.898 Y149.69 E2.74227
G1 X182.899 Y150.328 E2.76349
G1 X182.866 Y151.154 E2.79098
G1 X182.827 Y151.677 E2.80843
G1 X182.735 Y152.532 E2.83703
G1 X182.56 Y153.727 E2.8772
G1 X182.386 Y154.729 E2.91102
G1 X182.21 Y155.499 E2.9373
G1 X181.958 Y156.247 E2.96355
G1 X181.631 Y156.965 E2.98979
G1 X181.232 Y157.647 E3.01607
G1 X180.836 Y158.2 E3.03869
G1 X180.192 Y158.954 E3.07167
G1 X179.616 Y159.494 E3.09793
G1 X178.988 Y159.973 E3.1242
G1 X178.314 Y160.385 E3.15048
G1 X177.603 Y160.728 E3.17673
G1 X176.647 Y161.052 E3.2103
G1 X176.953 Y161.646 E3.23253
G1 X177.242 Y162.381 E3.2588
G1 X177.456 Y163.141 E3.28506
G1 X177.591 Y163.919 E3.31132
G1 X177.647 Y164.707 E3.3376
G1 X177.638 Y165.335 E3.35848
G1 X177.573 Y166.122 E3.38475
G1 X177.429 Y166.898 E3.411
G1 X177.207 Y167.656 E3.43727
G1 X176.91 Y168.388 E3.46354
G1 X176.54 Y169.085 E3.48979
G1 X176.227 Y169.569 E3.50896
G1 X175.747 Y170.253 E3.53675
G1 X175.161 Y171.059 E3.5699
G1 X174.383 Y172.038 E3.61149
G1 X174.054 Y172.42 E3.62826
G1 X173.48 Y173.044 E3.65646
G1 X173.024 Y173.5 E3.67791
G1 X172.415 Y174.061 E3.70545
G1 X172.014 Y174.406 E3.72304
G1 X171.344 Y174.944 E3.75162
G1 X170.343 Y175.682 E3.79298
G1 X169.528 Y176.252 E3.82606
G1 X168.858 Y176.67 E3.85233
G1 X168.149 Y177.018 E3.8786
G1 X167.409 Y177.293 E3.90485
G1 X166.644 Y177.491 E3.93114
G1 X166.046 Y177.591 E3.9513
G1 X165.061 Y177.675 E3.98418
G1 X164.271 Y177.654 E4.01047
G1 X163.488 Y177.553 E4.03673
G1 X162.719 Y177.374 E4.06299
G1 X161.972 Y177.118 E4.08925
G1 X161.02 Y176.653 E4.12449
G1 X160.819 Y177.282 E4.14645
G1 X160.504 Y178.006 E4.17271
G1 X160.118 Y178.695 E4.19898
G1 X159.663 Y179.341 E4.22526
G1 X159.199 Y179.882 E4.24897
G1 X158.503 Y180.564 E4.28138
G1 X157.881 Y181.05 E4.30763
G1 X157.213 Y181.472 E4.33391
G1 X156.506 Y181.823 E4.36016
G1 X155.767 Y182.101 E4.38642
G1 X154.905 Y182.324 E4.41604
G1 X154.051 Y182.493 E4.44499
G1 X152.883 Y182.682 E4.48435
G1 X151.685 Y182.821 E4.52446
G1 X151.172 Y182.861 E4.54157
G1 X150.321 Y182.898 E4.5699
G1 X149.655 Y182.898 E4.59206
G1 X148.82 Y182.863 E4.61985
G1 X148.288 Y182.823 E4.6376
G1 X147.44 Y182.729 E4.66597
G1 X146.22 Y182.544 E4.70702
G1 X145.225 Y182.367 E4.74063
G1 X144.456 Y182.187 E4.7669
G1 X143.709 Y181.931 E4.79316
G1 X142.991 Y181.601 E4.81944
G1 X142.311 Y181.2 E4.8457
G1 X141.791 Y180.826 E4.867
G1 X141.038 Y180.184 E4.89992
G1 X140.497 Y179.608 E4.9262
G1 X140.018 Y178.98 E4.95247
G1 X139.605 Y178.307 E4.97873
G1 X139.262 Y177.596 E5.00499
G1 X138.934 Y176.633 E5.03882
G1 X138.34 Y176.94 E5.06106
G1 X137.605 Y177.23 E5.08734
G1 X136.845 Y177.443 E5.11359
G1 X136.067 Y177.578 E5.13986
G1 X135.279 Y177.634 E5.16613
G1 X134.652 Y177.625 E5.18699
G1 X133.865 Y177.56 E5.21325
G1 X133.089 Y177.416 E5.2395
G1 X132.331 Y177.194 E5.26577
G1 X131.599 Y176.897 E5.29205
G1 X130.901 Y176.527 E5.31832
G1 X130.427 Y176.22 E5.33711
G1 X129.748 Y175.745 E5.36467
G1 X128.939 Y175.158 E5.39791
G1 X127.977 Y174.395 E5.43875
G1 X127.581 Y174.054 E5.45613
G1 X126.945 Y173.468 E5.4849
G1 X126.483 Y173.006 E5.50663
G1 X125.926 Y172.399 E5.53403
G1 X125.598 Y172.018 E5.55075
G1 X125.06 Y171.35 E5.57928
G1 X124.315 Y170.343 E5.62094
G1 X123.745 Y169.529 E5.65399
G1 X123.325 Y168.86 E5.68026
G1 X122.975 Y168.152 E5.70653
G1 X122.699 Y167.412 E5.7328
G1 X122.499 Y166.649 E5.75904
G1 X122.396 Y166.029 E5.77994
G1 X122.312 Y165.043 E5.81285
G1 X122.333 Y164.253 E5.83914
G1 X122.434 Y163.47 E5.8654
G1 X122.614 Y162.701 E5.89166
G1 X122.871 Y161.954 E5.91794
G1 X123.334 Y161.008 E5.95297
G1 X122.705 Y160.807 E5.97493
G1 X121.981 Y160.493 E6.00118
G1 X121.292 Y160.106 E6.02746
G1 X120.646 Y159.652 E6.05372
G1 X120.049 Y159.135 E6.07999
G1 X119.641 Y158.714 E6.09949
G1 X118.987 Y157.925 E6.13358
G1 X118.555 Y157.264 E6.15984
G1 X118.192 Y156.563 E6.1861
G1 X117.901 Y155.829 E6.21236
G1 X117.686 Y155.069 E6.23863
G1 X117.465 Y153.859 E6.27954
G1 X117.31 Y152.849 E6.31352
G1 X117.174 Y151.654 E6.35353
G1 X117.137 Y151.149 E6.37037
G1 X117.102 Y150.307 E6.3984
G1 X117.101 Y149.673 E6.41948
G1 X117.134 Y148.843 E6.44711
G1 X117.172 Y148.322 E6.46449
G1 X117.264 Y147.463 E6.49322
G1 X117.438 Y146.268 E6.53338
G1 X117.611 Y145.259 E6.56743
G1 X117.786 Y144.489 E6.5937
G1 X118.037 Y143.741 E6.61994
G1 X118.363 Y143.021 E6.64623
G1 X118.76 Y142.339 E6.67247
G1 X119.164 Y141.774 E6.69558
G1 X119.808 Y141.02 E6.72856
G1 X120.384 Y140.48 E6.75482
G1 X121.012 Y140.001 E6.78109
G1 X121.686 Y139.589 E6.80736
G1 X122.397 Y139.246 E6.83362
G1 X123.353 Y138.921 E6.8672
G1 X123.047 Y138.327 E6.88942
G1 X122.758 Y137.593 E6.91566
G1 X122.544 Y136.832 E6.94195
G1 X122.409 Y136.054 E6.96822
G1 X122.353 Y135.267 E6.99446
G1 X122.362 Y134.639 E7.01535
G1 X122.427 Y133.852 E7.04161
G1 X122.571 Y133.076 E7.06786
G1 X122.793 Y132.318 E7.09413
G1 X123.091 Y131.586 E7.12042
G1 X123.461 Y130.889 E7.14667
G1 X123.794 Y130.377 E7.16698
G1 X124.271 Y129.704 E7.19442
G1 X124.889 Y128.869 E7.22897
G1 X125.62 Y127.956 E7.26787
G1 X125.951 Y127.574 E7.28468
G1 X126.533 Y126.944 E7.31321
G0 F3600 X126.826 Y127.216
G1 F1200 X127.245 Y126.798 E7.33289
G1 X127.864 Y126.227 E7.3609
G1 X128.871 Y125.389 E7.40447
G1 X129.844 Y124.66 E7.44491
G1 X130.643 Y124.091 E7.47754
G1 X131.292 Y123.678 E7.50312
G1 X131.981 Y123.336 E7.52871
G1 X132.701 Y123.066 E7.55428
G1 X133.446 Y122.873 E7.57988
G1 X134.009 Y122.78 E7.59886
G1 X134.975 Y122.699 E7.6311
G1 X135.743 Y122.722 E7.65666
G1 X136.506 Y122.826 E7.68227
G1 X137.253 Y123.008 E7.70784
G1 X137.977 Y123.267 E7.73342
G1 X138.865 Y123.709 E7.76641
G1 X139.229 Y123.922 E7.78043
G1 X139.562 Y122.814 E7.81891
G1 X139.871 Y122.11 E7.84449
G1 X140.252 Y121.442 E7.87006
G1 X140.7 Y120.817 E7.89564
G1 X141.13 Y120.324 E7.9174
G1 X141.815 Y119.664 E7.94904
G1 X142.427 Y119.197 E7.97464
G1 X143.083 Y118.796 E8.00021
G1 X143.777 Y118.465 E8.02579
G1 X144.502 Y118.208 E8.05137
G1 X145.255 Y118.027 E8.07713
G1 X146.109 Y117.868 E8.10602
G1 X147.245 Y117.696 E8.14423
G1 X148.405 Y117.569 E8.18305
G1 X149.714 Y117.501 E8.22664
G1 X150.31 Y117.501 E8.24647
G1 X151.145 Y117.534 E8.27426
G1 X152.474 Y117.657 E8.31865
G1 X153.64 Y117.822 E8.35782
G1 X154.622 Y117.986 E8.39093
G1 X155.373 Y118.153 E8.41652
G1 X156.102 Y118.397 E8.44209
G1 X156.802 Y118.716 E8.46768
G1 X157.465 Y119.106 E8.49326
G1 X157.947 Y119.452 E8.51299
G1 X158.687 Y120.081 E8.5453
G1 X159.213 Y120.643 E8.5709
G1 X159.677 Y121.256 E8.59647
G1 X160.075 Y121.915 E8.62207
G1 X160.402 Y122.611 E8.64765
G1 X160.709 Y123.533 E8.67997
G1 X160.816 Y123.941 E8.694
G1 X161.842 Y123.391 E8.73272
G1 X162.558 Y123.112 E8.75828
G1 X163.3 Y122.909 E8.78386
G1 X164.059 Y122.784 E8.80945
G1 X165.15 Y122.743 E8.84576
G1 X166.135 Y122.819 E8.87862
G1 X166.89 Y122.966 E8.9042
G1 X167.626 Y123.191 E8.9298
G1 X168.334 Y123.491 E8.95538
G1 X169.007 Y123.862 E8.98094
G1 X170.061 Y124.594 E9.02362
G1 X170.889 Y125.207 E9.05788
G1 X171.794 Y125.932 E9.09645
G1 X172.78 Y126.821 E9.14061
G1 X173.207 Y127.248 E9.16069
G1 X173.777 Y127.867 E9.18868
G1 X174.609 Y128.87 E9.23202
G1 X175.339 Y129.846 E9.27256
G1 X175.895 Y130.627 E9.30445
G1 X176.308 Y131.276 E9.33003
G1 X176.651 Y131.964 E9.3556
G1 X176.921 Y132.684 E9.38118
G1 X177.115 Y133.429 E9.40678
G1 X177.213 Y134.031 E9.42707
G1 X177.289 Y134.997 E9.4593
G1 X177.261 Y135.766 E9.48489
G1 X177.154 Y136.528 E9.51048
G1 X176.968 Y137.274 E9.53605
G1 X176.706 Y137.997 E9.56163
G1 X176.279 Y138.849 E9.59333
G1 X176.064 Y139.216 E9.60748
G1 X177.174 Y139.55 E9.64603
G1 X177.879 Y139.859 E9.67163
G1 X178.547 Y140.24 E9.69721
G1 X179.172 Y140.688 E9.72279
G1 X179.936 Y141.391 E9.75732
G1 X180.586 Y142.138 E9.79025
G1 X181.021 Y142.772 E9.81582
G1 X181.387 Y143.449 E9.84142
G1 X181.682 Y144.159 E9.86699
G1 X181.901 Y144.897 E9.8926
G1 X182.141 Y146.197 E9.93657
G1 X182.294 Y147.197 E9.97021
G1 X182.427 Y148.374 E10.00961
G1 X182.498 Y149.707 E10.05401
G1 X182.499 Y150.312 E10.07413
G1 X182.466 Y151.138 E10.10163
G1 X182.338 Y152.49 E10.14679
G1 X182.165 Y153.667 E10.18636
G1 X181.992 Y154.66 E10.21989
G1 X181.82 Y155.409 E10.24545
G1 X181.571 Y156.137 E10.27104
G1 X181.248 Y156.835 E10.29662
G1 X180.854 Y157.495 E10.32218
G1 X180.521 Y157.952 E10.34099
G1 X179.89 Y158.691 E10.37331
G1 X179.327 Y159.214 E10.39887
G1 X178.712 Y159.676 E10.42445
G1 X178.053 Y160.072 E10.45002
G1 X177.356 Y160.397 E10.4756
G1 X176.455 Y160.696 E10.50718
G1 X176.046 Y160.803 E10.52124
G1 X176.597 Y161.829 E10.55997
G1 X176.876 Y162.546 E10.58556
G1 X177.079 Y163.288 E10.61115
G1 X177.203 Y164.047 E10.63673
G1 X177.245 Y165.101 E10.67181
G1 X177.174 Y166.089 E10.70476
G1 X177.031 Y166.844 E10.73032
G1 X176.809 Y167.581 E10.75592
G1 X176.513 Y168.291 E10.7815
G1 X176.144 Y168.966 E10.80709
G1 X175.419 Y170.023 E10.84972
G1 X174.838 Y170.823 E10.8826
G1 X174.071 Y171.787 E10.92358
G1 X173.185 Y172.773 E10.96767
G1 X172.753 Y173.206 E10.98801
G1 X172.144 Y173.767 E11.01555
G1 X171.763 Y174.094 E11.03225
G1 X171.093 Y174.632 E11.06083
G1 X170.107 Y175.359 E11.10157
G1 X169.299 Y175.924 E11.13437
G1 X168.646 Y176.33 E11.15994
G1 X167.954 Y176.666 E11.18553
G1 X167.231 Y176.929 E11.21111
G1 X166.485 Y177.115 E11.23669
G1 X165.798 Y177.219 E11.2598
G1 X165.031 Y177.275 E11.28537
G1 X164.262 Y177.252 E11.31096
G1 X163.5 Y177.149 E11.33654
G1 X162.752 Y176.967 E11.36214
G1 X162.028 Y176.709 E11.38771
G1 X161.139 Y176.267 E11.42073
G1 X160.771 Y176.052 E11.4349
G1 X160.438 Y177.16 E11.47338
G1 X160.128 Y177.864 E11.49897
G1 X159.747 Y178.532 E11.52455
G1 X159.299 Y179.157 E11.55012
G1 X158.908 Y179.607 E11.56995
G1 X158.225 Y180.275 E11.60172
G1 X157.618 Y180.746 E11.62728
G1 X156.964 Y181.152 E11.65288
G1 X156.273 Y181.488 E11.67844
G1 X155.549 Y181.75 E11.70405
G1 X154.828 Y181.931 E11.72877
G1 X153.974 Y182.1 E11.75773
G1 X152.821 Y182.286 E11.79657
G1 X151.642 Y182.424 E11.83605
G1 X150.303 Y182.498 E11.88065
G1 X149.672 Y182.499 E11.90164
G1 X148.837 Y182.464 E11.92944
G1 X148.332 Y182.425 E11.94629
G1 X147.484 Y182.331 E11.97466
G1 X146.283 Y182.149 E12.01506
G1 X145.296 Y181.973 E12.04841
G1 X144.547 Y181.797 E12.074
G1 X143.82 Y181.545 E12.09959
G1 X143.124 Y181.219 E12.12515
G1 X142.465 Y180.822 E12.15074
G1 X142.038 Y180.511 E12.16831
G1 X141.301 Y179.882 E12.20054
G1 X140.777 Y179.319 E12.22612
G1 X140.314 Y178.704 E12.25172
G1 X139.918 Y178.045 E12.27729
G1 X139.592 Y177.348 E12.30289
G1 X139.291 Y176.443 E12.33461
G1 X139.184 Y176.034 E12.34867
G1 X138.157 Y176.584 E12.38742
G1 X137.44 Y176.863 E12.41301
G1 X136.698 Y177.066 E12.43859
G1 X135.939 Y177.191 E12.46418
G1 X134.887 Y177.232 E12.49919
G1 X133.898 Y177.161 E12.53217
G1 X133.143 Y177.018 E12.55773
G1 X132.406 Y176.797 E12.58332
G1 X131.696 Y176.5 E12.60892
G1 X131.021 Y176.132 E12.63449
G1 X129.977 Y175.418 E12.67656
G1 X129.175 Y174.835 E12.70954
G1 X128.227 Y174.084 E12.74976
G1 X127.216 Y173.174 E12.795
G1 X126.778 Y172.735 E12.81563
G1 X126.221 Y172.128 E12.84303
G1 X125.372 Y171.099 E12.8874
G1 X124.639 Y170.107 E12.92842
G1 X124.072 Y169.3 E12.96123
G1 X123.665 Y168.648 E12.98679
G1 X123.327 Y167.957 E13.01238
G1 X123.063 Y167.234 E13.03798
G1 X122.875 Y166.489 E13.06353
G1 X122.793 Y165.979 E13.08071
G1 X122.712 Y165.013 E13.11295
G1 X122.735 Y164.245 E13.13851
G1 X122.839 Y163.482 E13.16412
G1 X123.021 Y162.735 E13.18969
G1 X123.28 Y162.011 E13.21527
G1 X123.721 Y161.124 E13.24821
G1 X123.934 Y160.759 E13.26227
G1 X122.827 Y160.426 E13.30072
G1 X122.123 Y160.116 E13.3263
G1 X121.455 Y159.736 E13.35187
G1 X120.829 Y159.288 E13.37747
G1 X120.254 Y158.777 E13.40305
G1 X119.782 Y158.272 E13.42604
G1 X119.299 Y157.673 E13.45164
G1 X118.88 Y157.028 E13.47722
G1 X118.531 Y156.343 E13.50279
G1 X118.255 Y155.625 E13.52837
G1 X117.999 Y154.596 E13.56364
G1 X117.859 Y153.79 E13.59085
G1 X117.705 Y152.789 E13.62454
G1 X117.572 Y151.612 E13.66393
G1 X117.501 Y150.29 E13.70797
G1 X117.501 Y149.689 E13.72795
G1 X117.534 Y148.859 E13.75558
G1 X117.662 Y147.506 E13.80078
G1 X117.833 Y146.328 E13.84038
G1 X118.005 Y145.328 E13.87412
G1 X118.176 Y144.578 E13.89971
G1 X118.424 Y143.85 E13.92529
G1 X118.746 Y143.151 E13.95089
G1 X119.139 Y142.49 E13.97646
G1 X119.479 Y142.022 E13.9957
G1 X120.11 Y141.283 E14.02802
G1 X120.673 Y140.76 E14.05358
G1 X121.288 Y140.298 E14.07917
G1 X121.947 Y139.902 E14.10474
G1 X122.644 Y139.577 E14.13032
G1 X123.546 Y139.277 E14.16193
G1 X123.954 Y139.17 E14.17596
G1 X123.403 Y138.144 E14.2147
